resources/svg/info-o.svg

<svg xmlns="http://www.w3.org/2000/svg" viewBox="0 0 15 15" fill="none"><path d="M7 1.49999V1.99999H8V1.49999H7ZM8 1.48999V0.98999H7V1.48999H8ZM8 13.5L8 3.99999H7L7 13.5H8ZM8 1.49999V1.48999H7V1.49999H8ZM4 4.99999H7.5V3.99999H4V4.99999ZM2 14H13V13H2V14Z" fill="black"/></svg>

<svg xmlns="http://www.w3.org/2000/svg" viewBox="0 0 15 15" fill="none"><path d="M7 1.5V2h1v-.5H7zm1-.01v-.5H7v.5h1zM8 13.5V4H7v9.5h1zm0-12v-.01H7v.01h1zM4 5h3.5V4H4v1zm-2 9h11v-1H2v1z" fill="currentColor"/></svg>
